X: 193
T:Maids when you're Young
M:3/4
R:waltz
L:1/8
Z:added by Alf warnock alf0@rogers.com
K:D
%%text Verse
G2|"D"A2 d2 d2|d2 A2 d2|f4 f2|"A7"e2 c2 A2-|A6-|A4
A2|"D"A2 d2 d2|d2 A2 d2|f2 e2 d2|"A7"a6|e6-|e4
a2|"D"a2 f2 a2|"G"g2 e2 c2|"D"d2 e2 f2|"G"B2 A2 G2|"D"A2 f2 d2|"Em"B2 g2 e2|"A7"c2 B2 c2|"D"d6-|d4
%%text Chorus
A2|d2 d2 d2|d2 A2 d2|f4 f2|"A7"e2 c2 A2|"D"A2 d2 d2|d2 A2 d2|f2 e2 d2|"A7"a6-|a4
a2|"D"a2 f2 a2|"G"g2 e2 c2|"D"d2 e2 f2|"G"B2 A2 G2|"D"A2 f2 d2|"Em"B2 g2 e2|"A7"c2 B2 c2|"D"d6-|d4:|

